X:1
T:Title
%%score { ( 1 3 ) | ( 2 4 5 ) }
L:1/8
M:4/4
K:Bb
V:1 treble nm="Grand Piano"
V:3 treble 
V:2 bass 
V:4 bass 
V:5 bass 
V:1
 z4 z2[Q:1/4=100] F2 | [Fd]2 [Fd]2 [Fd]>[Ec] [DB]>[EG] | [DF]2 [DF]>[EG] [DF]>[CE] [B,D]>[DB] | %3
 A2 A2 A>e G>A |[M:3/4] [DB]6 |[M:1/4] [F,F]2 |[M:4/4] [Fd]2 [Fd]2 [Fd]>[Ec] [DB]>[EG] | %7
 [DF]2 [DF]>[EG] [DF]>E [F,B,D]>[DFB] | [CFA]2 [Fc]2 [=EG]>[GB] [FA]>[EG] |[M:3/4] F6 | %10
[M:1/4] [F,F]2 |[M:4/4] [Fd]2 [Fd]4 [Ec][DB] | [DF]>[EG] [DF]4 [DB]2 | [EA]2 [EA]2 A>e G>e | %14
[M:3/4] F2 z2 z2 |[M:1/4] [F,F]2 |[M:4/4] [Fd]2 [Fd]4 [Ec][DB] | [DF]>[EG] [DF]4 [FB]2 | %18
 A2 e2 G>G A>F |[M:3/4] [DB]6 |] %20
V:2
 z4 z2 F,2 | [B,,B,]2 [B,,B,]2 [B,,B,]2 [B,,B,]>[B,,B,] | %2
 [B,,B,]2 [B,,B,]2 [B,,B,]2 [B,,F,]>[B,,B,] | [F,CE]2 [F,CE]2 [F,CE]>[F,CE] [F,CE]>[F,CE] | %4
[M:3/4] z z/ B,/- B,4 |[M:1/4] D,>C, |[M:4/4] [B,,B,]2 [B,,B,]2 [B,,B,]2 [B,,B,]>[B,,B,] | %7
 z4 [B,,B,]2 z2 | C,2 [C,A,]2 [C,C]>[C,C] [C,C]>[C,B,] |[M:3/4] A,2 z z/ G,/ z z/ E,/ | %10
[M:1/4] D,>C, |[M:4/4] [B,,B,]2 [F,,F,]2 [B,,B,]2 [F,,F,]2 | [B,,B,]2 [F,,F,]2 [B,,B,]2 [F,,F,]2 | %13
 [C,C]2 [F,,F,]2 [C,C]2 [F,,F,]2 |[M:3/4] B,,->[B,,B,] z z/ G,/ z z/ E,/ |[M:1/4] D,>C, | %16
[M:4/4] [B,,B,]2 [F,,F,]2 [B,,B,]2 [F,,F,]2 | [B,,B,]2 [F,,F,]2 [B,,B,]2 [D,B,]2 | %18
 [F,CF]2 [F,A,F]2 [F,CE]>[F,CE] [F,CE]>[F,A,E] |[M:3/4] [B,,B,]6 |] %20
V:3
 x8 | x8 | x8 | x8 |[M:3/4] B,2 z2 z2 |[M:1/4] x2 |[M:4/4] x8 | x8 | x8 |[M:3/4] z z/ G,/ A,4 | %10
[M:1/4] x2 |[M:4/4] x8 | x8 | z4 E2 E2 |[M:3/4] d2- [A,Fd-]2 [F,B,Fd]2 |[M:1/4] x2 |[M:4/4] x8 | %17
 x8 | x8 |[M:3/4] x6 |] %20
V:4
 x8 | x8 | x8 | x8 |[M:3/4] z2 A,>G, F,>E, |[M:1/4] x2 |[M:4/4] x8 | %7
 [B,,B,]2 [B,,B,]2 z z/ C/ B,,>B,, | x8 |[M:3/4] F,4 F,2 |[M:1/4] x2 |[M:4/4] x8 | x8 | x8 | %14
[M:3/4] B,2 F,2 B,,2 |[M:1/4] x2 |[M:4/4] x8 | x8 | x8 |[M:3/4] x6 |] %20
V:5
 x8 | x8 | x8 | x8 |[M:3/4] B,,6 |[M:1/4] x2 |[M:4/4] x8 | x8 | x8 |[M:3/4] x6 |[M:1/4] x2 | %11
[M:4/4] x8 | x8 | x8 |[M:3/4] x6 |[M:1/4] x2 |[M:4/4] x8 | x8 | x8 |[M:3/4] x6 |] %20

